X:3
T:Ash Grove Waltz
C: Traditional
M: 3/4
R: Waltz
K: D
Q:100
"A"A2|:"D"d2f2ag|f2d2d2|"G"e2gfed|"A"c2A2A2|"D"d2fedc|"G"B2G2B2|"D"A2d2"A"c2|"D"d4(3ABc:|
(3efg|:"D"a2fgab|a2g2f2|"A7"g2efga|g2f2e2|"D"f2defg|"Bm"f2e2d2|"A"c2a2"E"^g2|"A"a4(3ABc|
"D"d2f2ag|f2d2d2|"G"e2gfed|"A"c2A2A2|"D"d2fedc|"G"B2G2B2|"D"A2d2"A"c2|"D"d4:||

